svg/fluentui-system-icons/ic_fluent_video_sync_20_regular.svg

<svg width="20" height="20" viewBox="0 0 20 20" fill="none" xmlns="http://www.w3.org/2000/svg">
<path d="M4.5 4C3.11929 4 2 5.11929 2 6.5V10.2572C2.30711 10.0035 2.64222 9.78261 3 9.59971V6.5C3 5.67157 3.67157 5 4.5 5H11.5C12.3284 5 13 5.67157 13 6.5V13.5C13 14.3284 12.3284 15 11.5 15H10.9776C10.9466 15.3434 10.8841 15.6777 10.793 16H11.5C12.8807 16 14 14.8807 14 13.5V12.5L16.4 14.3C17.0592 14.7944 18 14.324 18 13.5V6.49998C18 5.67594 17.0592 5.20556 16.4 5.69998L14 7.49998V6.5C14 5.11929 12.8807 4 11.5 4H4.5ZM14 8.74998L17 6.49998V13.5L14 11.25V8.74998ZM1 14.5C1 16.9853 3.01472 19 5.5 19C7.98528 19 10 16.9853 10 14.5C10 12.0147 7.98528 10 5.5 10C3.01472 10 1 12.0147 1 14.5ZM7.5 11.5C7.77614 11.5 8 11.7239 8 12V13.5C8 13.7761 7.77614 14 7.5 14H6C5.72386 14 5.5 13.7761 5.5 13.5C5.5 13.2239 5.72386 13 6 13H6.46821C6.41787 12.9722 6.36628 12.9464 6.31355 12.923C6.06824 12.8137 5.80344 12.755 5.53495 12.7503C5.26646 12.7456 4.99977 12.795 4.75079 12.8956C4.5018 12.9962 4.27563 13.1459 4.08575 13.3358C3.89048 13.531 3.5739 13.531 3.37864 13.3358C3.18338 13.1405 3.18338 12.8239 3.37864 12.6287C3.66346 12.3439 4.00273 12.1193 4.3762 11.9684C4.74967 11.8175 5.14971 11.7434 5.55245 11.7505C5.95518 11.7575 6.35238 11.8456 6.72034 12.0094C6.81617 12.0521 6.90951 12.0997 7 12.1519V12C7 11.7239 7.22386 11.5 7.5 11.5ZM6.6238 17.0316C6.25033 17.1825 5.85029 17.2566 5.44755 17.2495C5.04482 17.2425 4.64762 17.1544 4.27966 16.9906C4.18383 16.9479 4.09049 16.9003 4 16.8481V17C4 17.2761 3.77614 17.5 3.5 17.5C3.22386 17.5 3 17.2761 3 17V15.5C3 15.2239 3.22386 15 3.5 15H5C5.27614 15 5.5 15.2239 5.5 15.5C5.5 15.7761 5.27614 16 5 16H4.53179C4.58213 16.0278 4.63372 16.0536 4.68645 16.077C4.93176 16.1863 5.19656 16.245 5.46505 16.2497C5.73354 16.2544 6.00023 16.205 6.24921 16.1044C6.4982 16.0038 6.72437 15.8541 6.91425 15.6642C7.10951 15.469 7.4261 15.469 7.62136 15.6642C7.81662 15.8595 7.81662 16.1761 7.62136 16.3713C7.33654 16.6561 6.99727 16.8807 6.6238 17.0316Z" fill="#212121"/>
</svg>

<svg xmlns="http://www.w3.org/2000/svg" width="20" height="20"><path d="M4.5 4A2.5 2.5 0 0 0 2 6.5v3.757A5.504 5.504 0 0 1 3 9.6V6.5A1.5 1.5 0 0 1 4.5 5h7A1.5 1.5 0 0 1 13 6.5v7a1.5 1.5 0 0 1-1.5 1.5h-.522a5.489 5.489 0 0 1-.185 1h.707a2.5 2.5 0 0 0 2.5-2.5v-1l2.4 1.8a1 1 0 0 0 1.6-.8v-7a1 1 0 0 0-1.6-.8L14 7.5v-1A2.5 2.5 0 0 0 11.5 4h-7ZM14 8.75l3-2.25v7l-3-2.25v-2.5ZM1 14.5a4.5 4.5 0 1 0 9 0 4.5 4.5 0 0 0-9 0Zm6.5-3a.5.5 0 0 1 .5.5v1.5a.5.5 0 0 1-.5.5H6a.5.5 0 0 1 0-1h.468a1.99 1.99 0 0 0-.933-.25 2 2 0 0 0-1.45.586.5.5 0 0 1-.706-.707A3 3 0 0 1 7 12.152V12a.5.5 0 0 1 .5-.5Zm-.876 5.532A2.999 2.999 0 0 1 4 16.848V17a.5.5 0 0 1-1 0v-1.5a.5.5 0 0 1 .5-.5H5a.5.5 0 0 1 0 1h-.468a1.99 1.99 0 0 0 .933.25 2 2 0 0 0 1.45-.586.5.5 0 0 1 .706.707 3 3 0 0 1-.997.66Z"/></svg>
